!!!!SEGMENT: pl-cz--iii-107--012_dankowski-adalbert--vesperae-es-sicut-erat.krn
!!!cenid: 18xx:772
!!!COM: Dankowski, Adalbert
!!!COM-rismID: pe30000793
!!!CDT: ~1760-~1836
!!!CNT: Polish
!!!OPR: Vesperae Es
!!!OTL: Sicut erat
!!!OMV: 012
!!!PDT: 1825
!!!AGN: Sacred; Vespers
!!!SMS-siglum: PL-CZ
!!!SMS-shelfmark: III-107
!!!SMS-shelfwork: 001-012 M
!!!SMS-variant:
!!!SMS-altvar:
!!!NIFC-rismSourceID: 300000115
!!!NIFC-rismChildID: 300000115
!!!NIFC-islandoraID: pl-cz:34263
!!!URL-pdf-islandora: https://repozytorium.nifc.pl/islandora/object/pl-cz%3A34263/datastream/PDF/view
!!!URL-scan: https://polish.musicsources.pl/pl/lokalizacje/galeria/rekopisy/6825/1 @EN{Scan on Polish Music Sources Website} @PL{Skany w portalu Dziedzictwo Muzyki Polskiej w otwartym dostępie}
!!!IIIF:
!!!ONB-nifc: UWAGA: części Vesperae: Dixit Dominus, Tecum principium, Iudicabit, De torrente,
!!!AIN: 1 alto 1 bass 2 clars 2 cor 1 organ 1 soprn 1 tenor 2 violn
!!!key: E-
**kern	**fba	**dynam	**kern	**dynam	**kern	**dynam	**kern	**text	**kern	**text	**kern	**text	**kern	**text	**kern	**dynam	**kern	**kern	**kern	**dynam
*part11	*	*part11	*part10	*part10	*part9	*part9	*part8	*part8	*part7	*part7	*part6	*part6	*part5	*part5	*part4	*part4	*part3	*part2	*part1	*part1
*group5	*	*	*group4	*	*group4	*	*group3	*group3	*group3	*group3	*group3	*group3	*group3	*group3	*group2	*	*group2	*group1	*group1	*
*staff11	*	*	*staff10	*	*staff9	*	*staff8	*staff8	*staff7	*staff7	*staff6	*staff6	*staff5	*staff5	*staff4	*	*staff3	*staff2	*staff1	*
*I"Organo.	*	*	*I"Violino Secondo.	*	*I"Violino Primo	*	*I"Baſso	*	*I"Tenore	*	*I"Alto!	*	*I"Soprano.	*	*I"Corno Secondo. in Dis Obligato.	*	*I"Corno Prymo in Dis Obligato	*I"Clarinetto Secundo in Dis	*I"Clarinetto. Primo. in Dis.	*
*I'org	*	*	*I'vl 2	*	*I'vl 1	*	*I'B	*	*I'T	*	*I'A	*	*I'S	*	*I'cor 2	*	*I'cor 1	*I'cl 2	*I'cl 1	*
*Iorgan	*	*	*Ivioln	*	*Ivioln	*	*Ibass	*	*Itenor	*	*Ialto	*	*Isoprn	*	*Icor	*	*Icor	*Iclars	*Iclars	*
*IGcont	*	*	*	*	*	*	*	*	*	*	*	*	*	*	*	*	*	*	*	*
*ICklav	*	*	*ICstr	*	*ICstr	*	*ICvox	*	*ICvox	*	*ICvox	*	*ICvox	*	*ICbras	*	*ICbras	*ICww	*ICww	*
*clefF4	*	*	*clefG2	*	*clefG2	*	*clefF4	*	*clefC4	*	*clefC3	*	*clefC1	*	*clefG2	*	*clefG2	*clefG2	*clefG2	*
*	*	*	*	*	*	*	*	*	*	*	*	*	*	*	*ITrd-2c-3	*	*ITrd-2c-3	*ITrd1c2	*ITrd1c2	*
*k[a-e-b-]	*	*	*k[b-e-a-]	*	*k[b-e-a-]	*	*k[e-b-a-]	*	*k[b-e-a-]	*	*k[b-e-a-]	*	*k[b-e-a-]	*	*k[b-e-a-]	*	*k[b-e-a-]	*k[b-e-a-]	*k[b-e-a-]	*
*E-:	*	*	*E-:	*	*E-:	*	*E-:	*	*E-:	*	*E-:	*	*E-:	*	*	*	*	*E-:	*E-:	*
*M3/8	*	*	*M3/8	*	*M3/8	*	*M3/8	*	*M3/8	*	*M3/8	*	*M3/8	*	*M3/8	*	*M3/8	*M3/8	*M3/8	*
=1	=1	=1	=1	=1	=1	=1	=1	=1	=1	=1	=1	=1	=1	=1	=1	=1	=1	=1	=1	=1
*	*	*	*	*	*	*below	*	*	*	*	*	*	*	*	*	*	*	*	*	*
!	!	!	!LO:TX:t=P:problem:brak znaków przykluczowych	!	!	!	!LO:TX:t=P:problem:all\right:global	!	!LO:TX:t=P:problem:znaki: EE- zamiast E-	!	!LO:TX:t=P:problem:all\right:global	!	!	!	!	!	!LO:TX:t=P:problem:all\right:global	!LO:TX:t=P:problem:all\middle or right:global	!LO:TX:t=P:problem:all\middle or right	!
!	!	!	!	!	!LO:TX:a:B:t=Allo	!	!LO:TX:a:B:t=allo	!	!LO:TX:a:B:t=Allo	!	!LO:TX:a:B:t=Allo	!	!	!	!LO:TX:b:B:t=Allo&colon;	!	!LO:TX:a:t=P:problem:kreska taktowa po metrum	!LO:TX:a:t=8.	!LO:TX:a:B:t=Allo.	!
!LO:TX:a:B:t=Allo	!	!	!LO:TX:a:B:t=Allo.	!	!	!	!LO:TX:b:t=8	!	!LO:TX:a:t=8	!	!LO:TX:a:t=8.	!	!LO:TX:a:B:t=allo	!	!LO:TX:a:t=8	!	!LO:TX:a:t=8	!	!LO:TX:a:t=8.	!
!LO:TX:a:t=P:problem:mixed beam	!	!LO:DY:t=p&colon;	!	!	!	!	!LO:N:vis=00	!	!LO:N:vis=00	!	!LO:N:vis=00	!	!LO:N:vis=00	!	!LO:N:vis=00	!	!LO:N:vis=00	!LO:N:vis=00	!LO:N:vis=00	!
8E-\L	.	p	16e-'/LL	p	16ee-'\LL	p	1.r	.	1.r	.	1.r	.	1.r	.	1.r	.	4.r	1.r	1.r	.
.	.	.	16g'/	.	16gg'\	.	.	.	.	.	.	.	.	.	.	.	.	.	.	.
8EE-/J	.	.	16b-'/	.	16bb-'\	.	.	.	.	.	.	.	.	.	.	.	.	.	.	.
.	.	.	16g'/	.	16gg'\	.	.	.	.	.	.	.	.	.	.	.	.	.	.	.
8r	.	.	16e-'/	.	16ee-'\	.	.	.	.	.	.	.	.	.	.	.	.	.	.	.
.	.	.	16g'/JJ	.	16gg'\JJ	.	.	.	.	.	.	.	.	.	.	.	.	.	.	.
!LO:LB:g=original	!	!	!	!	!	!	!	!	!	!	!	!	!	!	!	!	!	!	!	!
=2	=2	=2	=2	=2	=2	=2	=2	=2	=2	=2	=2	=2	=2	=2	=2	=2	=2	=2	=2	=2
8E-\L	.	.	(16f/LL	.	(16ff\LL	.	.	.	.	.	.	.	.	.	.	.	4.r	.	.	.
.	.	.	16e-/J)	.	16ee-\J)	.	.	.	.	.	.	.	.	.	.	.	.	.	.	.
8G\	.	.	8e-/J	.	8ee-|\J	.	.	.	.	.	.	.	.	.	.	.	.	.	.	.
8E-\J	.	.	8r	.	8r	.	.	.	.	.	.	.	.	.	.	.	.	.	.	.
=3	=3	=3	=3	=3	=3	=3	=3	=3	=3	=3	=3	=3	=3	=3	=3	=3	=3	=3	=3	=3
!LO:TX:t=P:problem:mixed beam	!	!	!	!	!	!	!	!	!	!	!	!	!	!	!	!	!	!	!	!
8B-\L	.	.	16d'/LL	.	16dd'\LL	.	.	.	.	.	.	.	.	.	.	.	4.r	.	.	.
.	.	.	16f'/	.	16ff'\	.	.	.	.	.	.	.	.	.	.	.	.	.	.	.
8BB-/J	.	.	16a-'/	.	16aa-'\	.	.	.	.	.	.	.	.	.	.	.	.	.	.	.
.	.	.	16f'/	.	16ff'\	.	.	.	.	.	.	.	.	.	.	.	.	.	.	.
8r	.	.	16d'/	.	16dd'\	.	.	.	.	.	.	.	.	.	.	.	.	.	.	.
.	.	.	16f'/JJ	.	16ff'\JJ	.	.	.	.	.	.	.	.	.	.	.	.	.	.	.
=4	=4	=4	=4	=4	=4	=4	=4	=4	=4	=4	=4	=4	=4	=4	=4	=4	=4	=4	=4	=4
!LO:TX:t=P:problem:mixed beam	!	!	!	!	!	!	!	!	!	!	!	!	!	!	!	!	!	!	!	!
8BB-/L	.	.	(16e-/LL	.	(16ee-\LL	.	.	.	.	.	.	.	.	.	.	.	4.r	.	.	.
.	.	.	16d/J)	.	16dd\J)	.	.	.	.	.	.	.	.	.	.	.	.	.	.	.
8B-\	.	.	8d/J	.	8dd|\J	.	.	.	.	.	.	.	.	.	.	.	.	.	.	.
8BB-/J	.	.	8r	.	8r	.	.	.	.	.	.	.	.	.	.	.	.	.	.	.
=5	=5	=5	=5	=5	=5	=5	=5	=5	=5	=5	=5	=5	=5	=5	=5	=5	=5	=5	=5	=5
!	!	!	!	!	!	!	!LO:N:vis=00	!	!LO:N:vis=00	!	!LO:N:vis=00	!	!LO:N:vis=00	!	!LO:N:vis=00	!	!	!LO:N:vis=00	!LO:N:vis=00	!
8E-\L	.	.	16e-/LL	.	(16ee-\LL	.	1.r	.	1.r	.	1.r	.	1.r	.	1.r	.	4.r	1.r	1.r	.
.	.	.	(16g/	.	16gg\	.	.	.	.	.	.	.	.	.	.	.	.	.	.	.
8G\	x 6	.	16f/	.	16ff\	.	.	.	.	.	.	.	.	.	.	.	.	.	.	.
.	.	.	16e-/	.	16ee-\	.	.	.	.	.	.	.	.	.	.	.	.	.	.	.
8G\J	.	.	16d/	.	16dd\	.	.	.	.	.	.	.	.	.	.	.	.	.	.	.
.	.	.	16e-/JJ)	.	16ee-\JJ)	.	.	.	.	.	.	.	.	.	.	.	.	.	.	.
=6	=6	=6	=6	=6	=6	=6	=6	=6	=6	=6	=6	=6	=6	=6	=6	=6	=6	=6	=6	=6
8A-\L	.	.	16d/LL	.	16dd\LL	.	.	.	.	.	.	.	.	.	.	.	4.r	.	.	.
.	.	.	16c/	.	16cc\JJ	.	.	.	.	.	.	.	.	.	.	.	.	.	.	.
8A-\	.	.	(16f/	.	16ff\	.	.	.	.	.	.	.	.	.	.	.	.	.	.	.
!	!	!	!	!	!LO:LB:g=original	!	!	!	!	!	!	!	!	!	!	!	!	!	!	!
.	.	.	16e-/	.	16ee-\LL	.	.	.	.	.	.	.	.	.	.	.	.	.	.	.
8A-\J	.	.	16d/	.	16dd\JJ	.	.	.	.	.	.	.	.	.	.	.	.	.	.	.
.	.	.	16c/JJ)	.	16cc\	.	.	.	.	.	.	.	.	.	.	.	.	.	.	.
=7	=7	=7	=7	=7	=7	=7	=7	=7	=7	=7	=7	=7	=7	=7	=7	=7	=7	=7	=7	=7
8G\L	x 6	.	16c/LL	.	16cc\LL	.	.	.	.	.	.	.	.	.	.	.	4.r	.	.	.
.	.	.	16B-/	.	16b-\	.	.	.	.	.	.	.	.	.	.	.	.	.	.	.
8A-\	x 6	.	(16a-/	.	16aa-\	.	.	.	.	.	.	.	.	.	.	.	.	.	.	.
.	.	.	16g/	.	16gg\	.	.	.	.	.	.	.	.	.	.	.	.	.	.	.
8An\J	x 5	.	16f/	.	16ff\	.	.	.	.	.	.	.	.	.	.	.	.	.	.	.
.	.	.	16e-/JJ)	.	16ee-\JJ	.	.	.	.	.	.	.	.	.	.	.	.	.	.	.
!	!	!	!LO:LB:g=original	!	!	!	!	!	!	!	!	!	!	!	!	!	!	!	!	!
=8	=8	=8	=8	=8	=8	=8	=8	=8	=8	=8	=8	=8	=8	=8	=8	=8	=8	=8	=8	=8
8B-\L	x 4	.	8e-/L	.	8ee-\L	.	.	.	.	.	.	.	.	.	.	.	4.r	.	.	.
16B-\L	x 3	.	8d/J	.	8dd\J	.	.	.	.	.	.	.	.	.	.	.	.	.	.	.
16A-X\	.	.	.	.	.	.	.	.	.	.	.	.	.	.	.	.	.	.	.	.
16G\	.	.	8r	.	8r	.	.	.	.	.	.	.	.	.	.	.	.	.	.	.
16F\JJ	.	.	.	.	.	.	.	.	.	.	.	.	.	.	.	.	.	.	.	.
=9	=9	=9	=9	=9	=9	=9	=9	=9	=9	=9	=9	=9	=9	=9	=9	=9	=9	=9	=9	=9
!LO:TX:a:t=Tutti	!	!	!	!LO:DY:t=for.	!	!	!	!	!	!	!	!	!	!	!	!	!	!LO:TX:a:B:t=Allo	!	!
8E-\L	.	.	16e-/LL	f	16ee-'\LL	f	4E-\	Si-	4B-\	Si-	4g\	Si-	4ee-\	Si-	4.ee-\	.	4.gg\	4.ee-\	4.gg\	.
.	.	.	16g/	.	16gg'\	.	.	.	.	.	.	.	.	.	.	.	.	.	.	.
8E-\	.	.	16b-/	.	16bb-'\	.	.	.	.	.	.	.	.	.	.	.	.	.	.	.
.	.	.	16g/	.	16gg'\	.	.	.	.	.	.	.	.	.	.	.	.	.	.	.
8E-\J	.	.	16e-/	.	16ee-'\	.	8E-\	-cut	8B-\	-cut	8g\	-cut	8ee-\	-cut	.	.	.	.	.	.
.	.	.	16g/JJ	.	16gg'\JJ	.	.	.	.	.	.	.	.	.	.	.	.	.	.	.
=10	=10	=10	=10	=10	=10	=10	=10	=10	=10	=10	=10	=10	=10	=10	=10	=10	=10	=10	=10	=10
*tremolo	*	*	*	*	*	*	*	*	*	*	*	*	*	*	*	*	*	*	*	*
8E-\L	.	.	16f/LL	.	(16ff\LL	.	4E-\	e-	4B-\	e-	4g\	e-	4ee-\	e-	4ee-\	.	4gg\	4ee-\	4gg\	.
.	.	.	16e-/J	.	16ee-\J)	.	.	.	.	.	.	.	.	.	.	.	.	.	.	.
8E-\	.	.	8e-/J	.	8ee-|\J	.	.	.	.	.	.	.	.	.	.	.	.	.	.	.
8E-\J	.	.	8r	.	8r	.	8E-\	-rat	8B-\	-rat	8g\	-rat	8ee-\	-rat	16gg\LL	.	16bb-\LL	16gg\LL	16bb-\LL	.
.	.	.	.	.	.	.	.	.	.	.	.	.	.	.	16ee-\JJ	.	16gg\JJ	16ee-\JJ	16gg\JJ	.
=11	=11	=11	=11	=11	=11	=11	=11	=11	=11	=11	=11	=11	=11	=11	=11	=11	=11	=11	=11	=11
*	*	*	*	*	*	*	*	*	*	*ij	*	*ij	*	*ij	*	*	*	*	*	*
8BB-/L	x 7_	.	16d/LL	.	16dd'\LL	.	4B-\	si-	4B-\	Si-	4f\	Si-	4dd\	Si-	4.b-/	.	4.ff\	4.dd\	4.ff\	.
.	.	.	16f/	.	16ff'\	.	.	.	.	.	.	.	.	.	.	.	.	.	.	.
8BB-/	.	.	16a-/	.	16aa-'\	.	.	.	.	.	.	.	.	.	.	.	.	.	.	.
.	.	.	16f/	.	16ff'\	.	.	.	.	.	.	.	.	.	.	.	.	.	.	.
8BB-/J	.	.	16d/	.	16dd'\	.	8B-\	-cut	8B-\	-cut	8f\	-cut	8dd\	-cut	.	.	.	.	.	.
.	.	.	16f/JJ	.	16ff'\JJ	.	.	.	.	.	.	.	.	.	.	.	.	.	.	.
=12	=12	=12	=12	=12	=12	=12	=12	=12	=12	=12	=12	=12	=12	=12	=12	=12	=12	=12	=12	=12
8BB-/L	.	.	16e-/LL	.	16ee-\LL	.	4B-\	e-	4B-\	e-	4f\	e-	4dd\	e-	4b-/	.	4ff\	4dd\	4ff\	.
.	.	.	16d/J	.	16dd\J	.	.	.	.	.	.	.	.	.	.	.	.	.	.	.
8BB-/	.	.	8d/J	.	8dd\J	.	.	.	.	.	.	.	.	.	.	.	.	.	.	.
8BB-/J	.	.	8r	.	8r	.	8B-\	-rat	8B-\	-rat	8f\	-rat	8dd\	-rat	16ff\LL	.	16aa-\LL	16ff\LL	16aa-\LL	.
.	.	.	.	.	.	.	.	.	.	.	.	.	.	.	16b-\JJ	.	16ff\JJ	16dd\JJ	16ff\JJ	.
*Xtremolo	*	*	*	*	*	*	*	*	*	*	*	*Xij	*	*	*	*	*	*	*	*
!LO:LB:g=original	!	!	!	!	!	!	!LO:LB:g=original	!	!	!	!	!	!	!	!	!	!	!	!	!
=13	=13	=13	=13	=13	=13	=13	=13	=13	=13	=13	=13	=13	=13	=13	=13	=13	=13	=13	=13	=13
!	!	!	!	!	!	!	!LO:SIC:v:s=(8E-\L	!	!	!	!	!	!	!	!	!	!	!	!	!
8E-\L	x x	.	16e-/LL	.	(16ee-\LL	.	(8F\L	si-	4B-\	Si-	4g\	Si-	4ee-\	Si-	4.e-/	.	4.ee-\	4.b-\	4.ee-\	.
.	.	.	(16g/	.	16gg\	.	.	.	.	.	.	.	.	.	.	.	.	.	.	.
8G\	x 6	.	16f/	.	16ff\	.	8G\J)	.	.	.	.	.	.	.	.	.	.	.	.	.
.	.	.	16e-/	.	16ee-\	.	.	.	.	.	.	.	.	.	.	.	.	.	.	.
8G\J	.	.	16d/	.	16dd\)	.	8G\	-cut	8B-\	-cut	8g\	-cut	8ee-\	-cut-	.	.	.	.	.	.
.	.	.	16e-/JJ)	.	16ee-\JJ	.	.	.	.	.	.	.	.	.	.	.	.	.	.	.
!	!	!	!	!	!LO:LB:g=original	!	!	!	!	!	!LO:LB:g=original	!	!	!	!	!	!	!	!	!
=14	=14	=14	=14	=14	=14	=14	=14	=14	=14	=14	=14	=14	=14	=14	=14	=14	=14	=14	=14	=14
*tremolo	*	*	*	*	*	*	*	*	*	*	*	*	*	*	*	*	*	*	*	*
8A-\L	.	.	16d/LL	.	(16dd\LL	.	4A-\	e-	4c\	e-	4a-\	e-	4ee-\	-e-	4.e-/	.	4.ee-\	4.cc\	4.ee-\	.
.	.	.	16c/	.	16cc\	.	.	.	.	.	.	.	.	.	.	.	.	.	.	.
8A-\	.	.	(16f/	.	16ff\	.	.	.	.	.	.	.	.	.	.	.	.	.	.	.
.	.	.	16e-/	.	16ee-\	.	.	.	.	.	.	.	.	.	.	.	.	.	.	.
8A-\J	.	.	16d/	.	16dd\)	.	8A-\	-rat	8c\	-rat	8a-\	-rat	8ee-\	-rat	.	.	.	.	.	.
*	*	*	*	*	*	*	*	*	*	*Xij	*	*	*	*Xij	*	*	*	*	*	*
.	.	.	16c/JJ)	.	16cc\JJ	.	.	.	.	.	.	.	.	.	.	.	.	.	.	.
=15	=15	=15	=15	=15	=15	=15	=15	=15	=15	=15	=15	=15	=15	=15	=15	=15	=15	=15	=15	=15
8G\L	x 6	.	16c/LL	.	(16cc\LL	.	4G\	in	4B-\	in	4g\	in	4ee-\	in	4.e-/	.	4.ee-\	4.b-\	4.ee-\	.
.	.	.	16B-/	.	16b-\	.	.	.	.	.	.	.	.	.	.	.	.	.	.	.
8G\	.	.	16e-/	.	16ee-\	.	.	.	.	.	.	.	.	.	.	.	.	.	.	.
.	.	.	16d/	.	16dd\	.	.	.	.	.	.	.	.	.	.	.	.	.	.	.
8G\J	.	.	16c/	.	16cc\	.	8G\	prin-	8B-\	prin-	8b-\	prin-	8ee-\	prin-	.	.	.	.	.	.
.	.	.	16B-/JJ	.	16b-\JJ)	.	.	.	.	.	.	.	.	.	.	.	.	.	.	.
*Xtremolo	*	*	*	*	*	*	*	*	*	*	*	*	*	*	*	*	*	*	*	*
!	!	!	!LO:LB:g=original	!	!	!	!	!	!	!	!	!	!	!	!	!	!	!	!	!
=16	=16	=16	=16	=16	=16	=16	=16	=16	=16	=16	=16	=16	=16	=16	=16	=16	=16	=16	=16	=16
!LO:TX:t=P:problem:mixed beam	!	!	!	!	!	!	!	!	!LO:SIC:v:s=8f\L	!	!	!	!	!	!	!	!LO:N:vis=4	!	!	!
8A-\L	x 6	.	8c/L	.	(16cc\LL	.	(8A-\L	-ci-	(8e-\L	-ci-	8a-\L	-ci-	8ff\L	-ci-	8ff\L	.	8aa-\L	8a-X/L	8ff\L	.
.	.	.	.	.	16aa-\	.	.	.	.	.	.	.	.	.	.	.	.	.	.	.
!	!	!	!	!	!	!	!	!	!LO:SIC:v:s=8e-\J)	!	!	!	!	!	!	!	!LO:N:vis=4	!	!	!
8B-\	x 4	.	8g/	.	16gg\	.	8B-\J)	.	8c\J)	.	8g\J	.	8ee-\J	.	8ee-\	.	8gg\	8g/	8ee-\	.
.	.	.	.	.	16ee-\	.	.	.	.	.	.	.	.	.	.	.	.	.	.	.
!	!	!	!	!	!	!	!	!	!	!	!	!	!LO:N:vis=4	!	!	!	!LO:N:vis=4	!	!	!
8BB-/J	x 3	.	8f/J	.	16ff\)	.	8B-\	-pi-	8B-\	-pi-	8f\	-pi-	8dd\	-pi-	8dd\J	.	8ff\J	8f/J	8dd\J	.
.	.	.	.	.	16dd\JJ	.	.	.	.	.	.	.	.	.	.	.	.	.	.	.
!	!	!	!	!	!	!	!	!	!	!	!	!	!LO:LB:g=original	!	!	!	!LO:LB:g=original	!	!	!
=17	=17	=17	=17	=17	=17	=17	=17	=17	=17	=17	=17	=17	=17	=17	=17	=17	=17	=17	=17	=17
*tremolo	*	*	*	*	*	*	*	*	*	*	*	*	*	*	*	*	*	*	*	*
8E-\L	x 3	.	8g/L	.	16ee-\LL	.	4E-\	-o	4B-\	-o	4g\	-o	4ee-\	-o	4.e-/	.	4.ee-\	4g/	4ee-\	.
.	.	.	.	.	16b-\	.	.	.	.	.	.	.	.	.	.	.	.	.	.	.
8E-\	.	.	8g/	.	16ee-\	.	.	.	.	.	.	.	.	.	.	.	.	.	.	.
.	.	.	.	.	16gg\	.	.	.	.	.	.	.	.	.	.	.	.	.	.	.
8E-\J	.	.	8g/J	.	16bb-\	.	8E-\	et	8B-\	et	8g\	et	8b-\	et	.	.	.	8b-/	8gg\	.
.	.	.	.	.	16gg\JJ	.	.	.	.	.	.	.	.	.	.	.	.	.	.	.
!	!	!	!	!	!	!	!	!	!	!	!	!	!	!	!	!	!	!LO:LB:g=original	!	!
=18	=18	=18	=18	=18	=18	=18	=18	=18	=18	=18	=18	=18	=18	=18	=18	=18	=18	=18	=18	=18
*	*	*	*tremolo	*	*	*	*	*	*	*	*	*	*	*	*	*	*	*	*	*
8E-\L	6 4	.	8a-/L	.	16aa-\LL	.	4E-\	nunc	4e-\	nunc	4a-\	nunc	4cc\	nunc	4.e-/	.	4.ee-\	4.cc\	4.aa-\	.
.	.	.	.	.	(16ccc\	.	.	.	.	.	.	.	.	.	.	.	.	.	.	.
8E-\	.	.	8a-/	.	16aa-\	.	.	.	.	.	.	.	.	.	.	.	.	.	.	.
.	.	.	.	.	16ee-\	.	.	.	.	.	.	.	.	.	.	.	.	.	.	.
8E-\J	.	.	8a-/J	.	16cc\)	.	8E-\	et	8e-\	et	8a-\	et	8cc\	et	.	.	.	.	.	.
.	.	.	.	.	16dd\JJ	.	.	.	.	.	.	.	.	.	.	.	.	.	.	.
=19	=19	=19	=19	=19	=19	=19	=19	=19	=19	=19	=19	=19	=19	=19	=19	=19	=19	=19	=19	=19
8E-\L	x 3	.	8g/L	.	16ee-\LL	.	4.E-\	sem-	4.e-\	sem-	4.g\	sem-	4.b-\	sem-	4.e-/	.	4.ee-\	4.b-\	4.gg\	.
.	.	.	.	.	16b-\	.	.	.	.	.	.	.	.	.	.	.	.	.	.	.
8E-\	.	.	8g/	.	16ee-\	.	.	.	.	.	.	.	.	.	.	.	.	.	.	.
.	.	.	.	.	16gg\	.	.	.	.	.	.	.	.	.	.	.	.	.	.	.
8E-\J	.	.	8g/J	.	16bb-\	.	.	.	.	.	.	.	.	.	.	.	.	.	.	.
.	.	.	.	.	16gg\JJ	.	.	.	.	.	.	.	.	.	.	.	.	.	.	.
!	!	!	!	!	!	!	!LO:LB:g=original	!	!	!	!	!	!	!	!LO:LB:g=original	!	!	!	!	!
=20	=20	=20	=20	=20	=20	=20	=20	=20	=20	=20	=20	=20	=20	=20	=20	=20	=20	=20	=20	=20
8E-\L	6 4	.	8a-/L	.	16aa-\LL	.	4.E-\	.	4.e-\	.	4.a-\	-per	4.cc\	.	4.e-/	.	4.ee-\	4.cc\	4.aa-\	.
.	.	.	.	.	16ccc\	.	.	.	.	.	.	.	.	.	.	.	.	.	.	.
8E-\	.	.	8a-/	.	16aa-\	.	.	.	.	.	.	.	.	.	.	.	.	.	.	.
.	.	.	.	.	16ee-\	.	.	.	.	.	.	.	.	.	.	.	.	.	.	.
8E-\J	.	.	8a-/J	.	16cc\	.	.	.	.	.	.	.	.	.	.	.	.	.	.	.
.	.	.	.	.	16dd\JJ	.	.	.	.	.	.	.	.	.	.	.	.	.	.	.
!	!	!	!	!	!LO:LB:g=original	!	!	!	!LO:LB:g=original	!	!	!	!	!	!	!	!	!	!	!
=21	=21	=21	=21	=21	=21	=21	=21	=21	=21	=21	=21	=21	=21	=21	=21	=21	=21	=21	=21	=21
8E-\L	x 3	.	8g/L	.	16ee-\LL	.	4E-\	-per	4e-\	-per	4g\	et	4b-\	-per	4.g/	.	4.ee-\	4.b-\	4.gg\	.
.	.	.	.	.	16b-\	.	.	.	.	.	.	.	.	.	.	.	.	.	.	.
8E-\	.	.	8g/	.	16gg\	.	.	.	.	.	.	.	.	.	.	.	.	.	.	.
.	.	.	.	.	16ee-\	.	.	.	.	.	.	.	.	.	.	.	.	.	.	.
8E-\J	.	.	8g/J	.	16bb-\	.	8E-\	et	8e-\	et	8g\	nunc	8b-\	et	.	.	.	.	.	.
.	.	.	.	.	16gg\JJ	.	.	.	.	.	.	.	.	.	.	.	.	.	.	.
*Xtremolo	*	*	*Xtremolo	*	*	*	*	*	*	*	*	*	*	*	*	*	*	*	*	*
!	!	!	!	!	!	!	!	!	!	!	!LO:LB:g=original	!	!	!	!	!	!	!	!	!
=22	=22	=22	=22	=22	=22	=22	=22	=22	=22	=22	=22	=22	=22	=22	=22	=22	=22	=22	=22	=22
!	!	!	!	!	!	!	!	!	!	!	!	!	!LO:SIC:v:s=4dd\	!	!	!	!	!	!	!
8B-\L	x 3_	.	8f/L	.	16ff\LL	.	(8B-\L	nunc	4B-\	nunc	4f\	et	4cc\	nunc	4b-/	.	4ff\	4dd\	4ff\	.
.	.	.	.	.	16aa-\	.	.	.	.	.	.	.	.	.	.	.	.	.	.	.
8A-\	.	.	8b-/	.	16dd\	.	8A-\J)	.	.	.	.	.	.	.	.	.	.	.	.	.
.	.	.	.	.	16ff\	.	.	.	.	.	.	.	.	.	.	.	.	.	.	.
8G\J	x 6	.	8b-/J	.	16ee-\	.	8G\	et	8B-\	et	8g\	nunc	8ee-\	et	8ee-\	.	8gg\	8ee-\	8gg\	.
.	.	.	.	.	16b-\JJ	.	.	.	.	.	.	.	.	.	.	.	.	.	.	.
!	!	!	!	!	!	!	!	!	!	!	!	!	!	!	!	!	!	!	!LO:LB:g=original	!
=23	=23	=23	=23	=23	=23	=23	=23	=23	=23	=23	=23	=23	=23	=23	=23	=23	=23	=23	=23	=23
!LO:TX:t=P:problem:mixed beam	!	!	!	!	!	!	!	!	!	!	!	!	!	!	!	!	!	!	!	!
8A-\L	x 6	.	8a-/L	.	16cc\LL	.	8A-\L	sem-	4c\	sem-	8a-\L	et	8ff\L	sem-	8ff\L	.	8aa-\L	8ff\L	8aa-\L	.
.	.	.	.	.	16aa-\	.	.	.	.	.	.	.	.	.	.	.	.	.	.	.
!	!	!	!	!	!	!	!LO:TX:t=P:problem:mixed beam	!	!	!	!	!	!	!	!	!	!	!	!	!
8B-\	x 4	.	8g/	.	16gg\	.	8B-\	.	.	.	(8g\	sem-	8ee-\	.	8ee-\	.	8gg\	8ee-\	8gg\	.
.	.	.	.	.	16ee-\	.	.	.	.	.	.	.	.	.	.	.	.	.	.	.
8BB-/J	x 3	.	8f/J	.	16dd\	.	8BB-/J	.	8B-\	.	8f\J)	.	8dd\J	.	8b-\J	.	8ff\J	8dd\J	8ff\J	.
.	.	.	.	.	16ff\JJ	.	.	.	.	.	.	.	.	.	.	.	.	.	.	.
!LO:LB:g=original	!	!	!	!	!	!	!	!	!	!	!	!	!	!	!	!	!	!	!	!
=24	=24	=24	=24	=24	=24	=24	=24	=24	=24	=24	=24	=24	=24	=24	=24	=24	=24	=24	=24	=24
8E-\L	x 3_	.	8g/L	.	8ee-\L	.	8E-\	-per	8B-\	-per	8g\	-per	8ee-\	-per	4ee-\	.	4gg\	4ee-\	4gg\	.
8E-\	.	.	8g/	.	16gg\L	.	8E-\	et	8B-\	et	8g\	et	8ee-\	et	.	.	.	.	.	.
.	.	.	.	.	16bb-\	.	.	.	.	.	.	.	.	.	.	.	.	.	.	.
!	!	!	!	!	!	!	!	!	!	!	!	!	!	!LO:MO:mod=in	!	!	!	!	!	!
8E-\J	4| 2	.	8f/J	.	16aan\	.	8E-\	in	8f\	in	8an\	in	8cc\	i	8ff\	.	8aaX\	8cc\	8aa\	.
.	.	.	.	.	16ccc\JJ	.	.	.	.	.	.	.	.	.	.	.	.	.	.	.
=25	=25	=25	=25	=25	=25	=25	=25	=25	=25	=25	=25	=25	=25	=25	=25	=25	=25	=25	=25	=25
*tremolo	*	*	*	*	*	*	*	*	*	*	*	*	*	*	*	*	*	*	*	*
!	!	!	!	!	!	!	!	!	!	!	!	!	!	!LO:MO:mod=sae-	!	!	!	!	!	!
8D\L	x 6	.	8f/L	.	(16bb-\LL	.	8.D\	sae-	8f\	Sae-	8.b-\	Sae-	8.dd\	se-	4.b-/	.	4bb-\	4.dd\	4bb-\	.
.	.	.	.	.	16ff\JJ)	.	.	.	.	.	.	.	.	.	.	.	.	.	.	.
8D\	.	.	8b-/	.	8.ff\L	.	.	.	8f\	-cu-	.	.	.	.	.	.	.	.	.	.
.	.	.	.	.	.	.	16D\	-cu-	.	.	16b-\	-cu-	16dd\	-cu-	.	.	.	.	.	.
8D\J	.	.	8b-/J	.	.	.	8D\	-la	8d\	-la	8b-\	-la	8ff\	-la	.	.	8ff\	.	8ff\	.
.	.	.	.	.	16dd\Jk	.	.	.	.	.	.	.	.	.	.	.	.	.	.	.
!	!	!	!	!	!	!	!LO:LB:g=original	!	!	!	!	!	!LO:LB:g=original	!	!	!	!	!	!	!
=26	=26	=26	=26	=26	=26	=26	=26	=26	=26	=26	=26	=26	=26	=26	=26	=26	=26	=26	=26	=26
!	!	!	!	!	!	!	!	!	!	!	!	!LO:MO:mod=Sae-	!	!LO:MO:mod=sae-	!	!	!LO:TX:a:t=P:problem:brakujące 2 takty partii cor 1	!	!	!
8E-\L	x 3	.	8g/L	.	8ee-\L	.	4E-\	sae-	4B-\	sae-	4g\	Se-	4ee-\	Se-	4ee-\	.	4.ryy	4ee-\	4gg\	.
8E-\	.	.	8g/	.	(16gg\L	.	.	.	.	.	.	.	.	.	.	.	.	.	.	.
.	.	.	.	.	16bb-\	.	.	.	.	.	.	.	.	.	.	.	.	.	.	.
!	!	!	!	!	!	!	!	!	!	!	!	!	!	!	!	!	!	!	!LO:N:vis=4	!
8E-\J	4| 2	.	8f/J	.	16aan\)	.	8E-\	-cu-	8f\	-cu-	8an\	-cu-	8cc\	-cu-	8ff\	.	.	8cc\	8aa\	.
.	.	.	.	.	16ccc\JJ	.	.	.	.	.	.	.	.	.	.	.	.	.	.	.
=27	=27	=27	=27	=27	=27	=27	=27	=27	=27	=27	=27	=27	=27	=27	=27	=27	=27	=27	=27	=27
8D\L	x 6	.	8f/L	.	16bb-\LL	.	4D\	-lo-	4f\	-lo-	4b-\	-lo-	4dd\	-lo-	4.b-/	.	4.ryy	4.dd\	4bb-\	.
.	.	.	.	.	16ff\JJ	.	.	.	.	.	.	.	.	.	.	.	.	.	.	.
8D\	.	.	8b-/	.	8.ff\L	.	.	.	.	.	.	.	.	.	.	.	.	.	.	.
8D\J	.	.	8b-/J	.	.	.	8D\	-rum	8d\	-rum	8b-\	-rum	8ff\	-rum	.	.	.	.	8ff\	.
.	.	.	.	.	16dd\Jk	.	.	.	.	.	.	.	.	.	.	.	.	.	.	.
!	!	!	!LO:LB:g=original	!	!	!	!	!	!	!	!LO:LB:g=original	!	!	!	!	!	!	!	!	!
=28	=28	=28	=28	=28	=28	=28	=28	=28	=28	=28	=28	=28	=28	=28	=28	=28	=28	=28	=28	=28
*Xtremolo	*	*	*tremolo	*	*	*	*	*	*	*	*	*	*	*	*	*	*	*	*	*
8E-\L	.	.	8b-\L	.	16ff\LL	.	8E-\L	a-	4.B-\	a-	4.g\	A-	4.ee-\	a-	4.ee-\	.	4.gg\	4.b-\	4.ee-\	.
.	.	.	.	.	(16ee-\	.	.	.	.	.	.	.	.	.	.	.	.	.	.	.
8G\	x 6	.	8b-\	.	16dd\	.	8G\	.	.	.	.	.	.	.	.	.	.	.	.	.
.	.	.	.	.	16ee-\	.	.	.	.	.	.	.	.	.	.	.	.	.	.	.
8E-\J	.	.	8b-\J	.	16ff\	.	8E-\J	.	.	.	.	.	.	.	.	.	.	.	.	.
.	.	.	.	.	16gg\JJ)	.	.	.	.	.	.	.	.	.	.	.	.	.	.	.
*	*	*	*Xtremolo	*	*	*	*	*	*	*	*	*	*	*	*	*	*	*	*	*
!	!	!	!	!	!LO:LB:g=original	!	!	!	!	!	!	!	!	!	!	!	!	!	!	!
=29	=29	=29	=29	=29	=29	=29	=29	=29	=29	=29	=29	=29	=29	=29	=29	=29	=29	=29	=29	=29
8D/L	x 6	.	8b-/L	.	8ff\L	.	8D/L	.	4.f\	.	8b-\L	.	8ff\L	.	4.ff\	.	4.ff\	8g/L	8dd\L	.
8AAn/	.	.	8cc/	.	8ee-\	.	8AAn/	.	.	.	8cc\	.	8ee-\	.	.	.	.	8a/	8ee-\	.
8BB-/J	.	.	8f/J	.	8dd\J	.	8BB-/J	.	.	.	8b-\J	.	8dd\J	.	.	.	.	8b-/J	8ff\J	.
=30	=30	=30	=30	=30	=30	=30	=30	=30	=30	=30	=30	=30	=30	=30	=30	=30	=30	=30	=30	=30
!LO:TX:t=P:problem:mixed beam	!	!	!	!	!	!	!	!	!	!	!	!	!	!	!	!	!	!	!	!
8E-\L	x 6	.	16dd\LL	.	16ff\LL	.	8E-\L	.	8g\	.	16dd\LL	.	16ff\LL	.	8ee-\L	.	8gg\L	8cc\L	8ee-\L	.
.	.	.	16cc\JJ	.	16ee-\J	.	.	.	.	.	16cc\JJ	.	16ee-\JJ	.	.	.	.	.	.	.
!	!	!	!	!	!	!	!LO:TX:t=P:problem:mixed beam	!	!	!	!	!	!LO:N:vis=4	!	!	!	!	!	!	!
8F\	x 4	.	8b-\L	.	8dd\	.	8F\	.	4f\	.	8b-\L	.	8dd\	.	8ff\	.	8bb-\	8b-\	8dd\	.
!	!	!	!	!	!	!	!	!	!	!	!	!	!LO:N:vis=4	!	!	!	!	!	!	!
8FF/J	x 3	.	8an\J	.	8cc\J	.	8FF/J	.	.	.	8an\J	.	8cc\	.	8ff\J	.	8aaX\J	8a\J	8cc\J	.
=31	=31	=31	=31	=31	=31	=31	=31	=31	=31	=31	=31	=31	=31	=31	=31	=31	=31	=31	=31	=31
!	!	!	!LO:TX:t=P:problem:mixed beam	!	!LO:TX:t=P:problem:mixed beam	!	!	!	!	!	!	!	!	!LO:MO:mod=-men	!	!	!	!LO:TX:a:t=Solo	!LO:TX:a:t=Solo.	!
4BB-/	.	.	8b-\L	.	8dd\L	p	4BB-/	-men	4f\	-men	4b-\	-men.	4b-\	-mem	8b-/	.	4bb-\	16b-\LL	16dd\LL	.
.	.	.	.	.	.	.	.	.	.	.	.	.	.	.	.	.	.	16dd\JJ	16ff\JJ	.
.	.	.	8B-/	.	8B-/	.	.	.	.	.	.	.	.	.	4r	.	.	8.dd\L	8.ff\L	.
8r	.	.	8B-/J	.	8B-/J	.	8r	.	8r	.	8r	.	8r	.	.	.	8r	.	.	.
.	.	.	.	.	.	.	.	.	.	.	.	.	.	.	.	.	.	16b-\Jk	16dd\Jk	.
=32	=32	=32	=32	=32	=32	=32	=32	=32	=32	=32	=32	=32	=32	=32	=32	=32	=32	=32	=32	=32
!	!	!	!	!	!	!	!	!	!	!	!	!	!LO:TX:b:t=13.	!	!	!	!	!	!	!
!LO:TX:a:t=8.	!	!	!	!	!	!	!LO:TX:b:t=13	!	!LO:TX:a:t=13	!	!LO:TX:a:t=13.	!	!LO:TX:a:t=13	!	!LO:TX:a:t=10.	!	!LO:TX:a:t=10	!	!	!
!LO:N:vis=00	!	!	!	!LO:DY:t=p.	!	!	!LO:N:vis=00	!	!LO:N:vis=00	!	!LO:N:vis=00	!	!LO:N:vis=00	!	!LO:N:vis=00	!	!	!	!	!
1.r	.	.	4f/	p	4f/	.	1.r	.	1.r	.	1.r	.	1.r	.	1.r	.	4.r	(16dd\LL	16ff'\LL	.
.	.	.	.	.	.	.	.	.	.	.	.	.	.	.	.	.	.	16cc\	16ee-'\	.
.	.	.	.	.	.	.	.	.	.	.	.	.	.	.	.	.	.	16b-\	16dd'\	.
.	.	.	.	.	.	.	.	.	.	.	.	.	.	.	.	.	.	16a\	16cc'\	.
.	.	.	8r	.	8r	.	.	.	.	.	.	.	.	.	.	.	.	16b-\)	16dd'\	.
.	.	.	.	.	.	.	.	.	.	.	.	.	.	.	.	.	.	16cc\JJ	16ee-'\JJ	.
=33	=33	=33	=33	=33	=33	=33	=33	=33	=33	=33	=33	=33	=33	=33	=33	=33	=33	=33	=33	=33
.	.	.	8r	.	8r	.	.	.	.	.	.	.	.	.	.	.	4.r	(16b-\LL	16dd\LL	.
.	.	.	.	.	.	.	.	.	.	.	.	.	.	.	.	.	.	16dd\JJ)	16ff\JJ	.
.	.	.	8B-/L	.	8B-/L	.	.	.	.	.	.	.	.	.	.	.	.	(8.dd\L	8.ff\L	.
.	.	.	8B-/J	.	8B-/J	.	.	.	.	.	.	.	.	.	.	.	.	.	.	.
.	.	.	.	.	.	.	.	.	.	.	.	.	.	.	.	.	.	16b-\Jk)	16dd\Jk	.
!	!	!	!	!	!	!	!	!	!	!	!	!	!	!	!	!	!	!LO:LB:g=original	!LO:LB:g=original	!
=34	=34	=34	=34	=34	=34	=34	=34	=34	=34	=34	=34	=34	=34	=34	=34	=34	=34	=34	=34	=34
.	.	.	4f/	.	4f/	.	.	.	.	.	.	.	.	.	.	.	4.r	(16dd\LL	(16ff\LL	.
.	.	.	.	.	.	.	.	.	.	.	.	.	.	.	.	.	.	16cc\	16ee-\)	.
.	.	.	.	.	.	.	.	.	.	.	.	.	.	.	.	.	.	16b-\	(16dd\	.
.	.	.	.	.	.	.	.	.	.	.	.	.	.	.	.	.	.	16a\)	16cc\)	.
.	.	.	8r	.	8r	.	.	.	.	.	.	.	.	.	.	.	.	16b-\	(16dd\	.
.	.	.	.	.	.	.	.	.	.	.	.	.	.	.	.	.	.	16cc\JJ	16ee-\JJ)	.
=35	=35	=35	=35	=35	=35	=35	=35	=35	=35	=35	=35	=35	=35	=35	=35	=35	=35	=35	=35	=35
.	.	.	8r	.	8r	.	.	.	.	.	.	.	.	.	.	.	4.r	(16b-\LL	(16dd\LL	.
.	.	.	.	.	.	.	.	.	.	.	.	.	.	.	.	.	.	16dd\JJ)	16ff\JJ)	.
.	.	.	8B-/L	.	8B-/L	.	.	.	.	.	.	.	.	.	.	.	.	8.dd\L	8.bb-\L	.
.	.	.	8B-/J	.	8B-/J	.	.	.	.	.	.	.	.	.	.	.	.	.	.	.
.	.	.	.	.	.	.	.	.	.	.	.	.	.	.	.	.	.	16ff\Jk	16aa-X\Jk	.
=36	=36	=36	=36	=36	=36	=36	=36	=36	=36	=36	=36	=36	=36	=36	=36	=36	=36	=36	=36	=36
!LO:N:vis=00	!	!	!	!	!	!	!LO:N:vis=00	!	!LO:N:vis=00	!	!LO:N:vis=00	!	!LO:N:vis=00	!	!LO:N:vis=00	!	!	!	!	!
1.r	.	.	8r	.	8r	.	1.r	.	1.r	.	1.r	.	1.r	.	1.r	.	4.r	(16ff\LL	(16aa-\LL	.
.	.	.	.	.	.	.	.	.	.	.	.	.	.	.	.	.	.	16ee-\JJ)	16gg\JJ)	.
.	.	.	8e-/L	.	8e-/L	.	.	.	.	.	.	.	.	.	.	.	.	4ee-\	4gg\	.
.	.	.	8e-/J	.	8e-/J	.	.	.	.	.	.	.	.	.	.	.	.	.	.	.
=37	=37	=37	=37	=37	=37	=37	=37	=37	=37	=37	=37	=37	=37	=37	=37	=37	=37	=37	=37	=37
.	.	.	8r	.	8r	.	.	.	.	.	.	.	.	.	.	.	4.r	16ee-\LL	(16gg\LL	.
.	.	.	.	.	.	.	.	.	.	.	.	.	.	.	.	.	.	16ff\JJ	16aa\JJ)	.
.	.	.	8e-/L	.	8e-/L	.	.	.	.	.	.	.	.	.	.	.	.	8.gg\L	8.bb-\L	.
.	.	.	8e-/J	.	8e-/J	.	.	.	.	.	.	.	.	.	.	.	.	.	.	.
.	.	.	.	.	.	.	.	.	.	.	.	.	.	.	.	.	.	16ee-\Jk	16gg\Jk	.
=38	=38	=38	=38	=38	=38	=38	=38	=38	=38	=38	=38	=38	=38	=38	=38	=38	=38	=38	=38	=38
.	.	.	8r	.	8r	.	.	.	.	.	.	.	.	.	.	.	4.r	16ee-\LL	(16gg\LL	.
.	.	.	.	.	.	.	.	.	.	.	.	.	.	.	.	.	.	16dd\JJ	16ff\JJ)	.
.	.	.	8B-/L	.	8B-/L	.	.	.	.	.	.	.	.	.	.	.	.	4dd\	4ff\	.
.	.	.	8B-/J	.	8B-/J	.	.	.	.	.	.	.	.	.	.	.	.	.	.	.
!	!	!	!LO:LB:g=original	!	!LO:LB:g=original	!	!	!	!	!	!	!	!	!	!	!	!	!	!	!
=39	=39	=39	=39	=39	=39	=39	=39	=39	=39	=39	=39	=39	=39	=39	=39	=39	=39	=39	=39	=39
.	.	.	8r	.	8r	.	.	.	.	.	.	.	.	.	.	.	4.r	16dd\LL	(16ff\LL	.
.	.	.	.	.	.	.	.	.	.	.	.	.	.	.	.	.	.	16cc\JJ	16ee-\JJ)	.
.	.	.	8f/L	.	8f/L	.	.	.	.	.	.	.	.	.	.	.	.	8.a\L	8.cc\L	.
.	.	.	8f/J	.	8f/J	.	.	.	.	.	.	.	.	.	.	.	.	.	.	.
.	.	.	.	.	.	.	.	.	.	.	.	.	.	.	.	.	.	16cc\Jk	16ee-\Jk	.
!LO:TX:rj:b:t=%	!	!	!	!	!	!	!	!	!	!	!	!	!	!	!	!	!	!	!	!
!LO:PB:g=original	!	!	!	!	!	!	!	!	!	!	!	!	!	!	!	!	!	!	!	!
=40	=40	=40	=40	=40	=40	=40	=40	=40	=40	=40	=40	=40	=40	=40	=40	=40	=40	=40	=40	=40
!	!	!	!	!	!	!	!LO:N:vis=00	!	!LO:N:vis=00	!	!LO:N:vis=00	!	!LO:N:vis=00	!	!LO:N:vis=0	!	!	!	!	!
8r	.	.	4B-/	.	4B-/	.	1.r	.	1.r	.	1.r	.	1.r	.	2.r	.	4.r	16b-\LL	16dd'\LL	.
.	.	.	.	.	.	.	.	.	.	.	.	.	.	.	.	.	.	16cc\	16ee-'\	.
8r	.	.	.	.	.	.	.	.	.	.	.	.	.	.	.	.	.	16dd\	16ff'\	.
.	.	.	.	.	.	.	.	.	.	.	.	.	.	.	.	.	.	16ee-\	16gg'\	.
!	!	!LO:DY:rj:t=p&colon;	!	!	!	!	!	!	!	!	!	!	!	!	!	!	!	!	!	!
8D\	.	p	8r	.	8r	.	.	.	.	.	.	.	.	.	.	.	.	16cc\	16aa'\	.
.	.	.	.	.	.	.	.	.	.	.	.	.	.	.	.	.	.	16dd\JJ	16bb-'\JJ	.
=41	=41	=41	=41	=41	=41	=41	=41	=41	=41	=41	=41	=41	=41	=41	=41	=41	=41	=41	=41	=41
!	!	!	!	!	!	!	!	!	!	!	!	!	!	!	!	!	!	!	!LO:N:vis=8	!
.	.	.	.	.	.	.	.	.	.	.	.	.	.	.	.	.	.	16qqff/	8qaa-/	.
!LO:TX:t=P:problem:mixed beam	!	!	!LO:TX:a:t=1.	!	!LO:TX:t=1.	!	!	!	!	!	!	!	!	!	!	!	!	!LO:N:vis=8	!	!
8E-\L	x 6	.	4.r	.	4.r	.	.	.	.	.	.	.	.	.	.	.	4.r	16ee-LL	16gg\LL	.
!	!	!	!	!	!	!	!	!	!	!	!	!	!	!	!	!	!	!LO:N:vis=16	!	!
.	.	.	.	.	.	.	.	.	.	.	.	.	.	.	.	.	.	32dd\L	32ff\L	.
!	!	!	!	!	!	!	!	!	!	!	!	!	!	!	!	!	!	!LO:N:vis=16	!	!
.	.	.	.	.	.	.	.	.	.	.	.	.	.	.	.	.	.	32cc\JJJ	32ee-\JJJ	.
8F\	x 4	.	.	.	.	.	.	.	.	.	.	.	.	.	.	.	.	8b-\L	8dd\L	.
8FF/J	x 3	.	.	.	.	.	.	.	.	.	.	.	.	.	.	.	.	8a\J	8cc\J	.
!	!	!	!	!	!	!	!	!	!	!	!	!	!	!	!LO:LB:g=original	!	!	!	!	!
=42	=42	=42	=42	=42	=42	=42	=42	=42	=42	=42	=42	=42	=42	=42	=42	=42	=42	=42	=42	=42
!	!	!	!	!	!	!	!	!	!	!	!	!	!	!	!	!	!	!	!LO:N:vis=8	!
4BB-/	.	.	8r	.	8r	.	.	.	.	.	.	.	.	.	4b-/	.	4ff\	4b-\	8b-\	.
!	!	!	!	!LO:DY:rj:t=p.	!	!	!	!	!	!	!	!	!	!	!	!	!	!	!	!
.	.	.	8d/L	p	8dd\L	.	.	.	.	.	.	.	.	.	.	.	.	.	8r	.
8r	.	.	8d/J	.	8dd\J	.	.	.	.	.	.	.	.	.	8r	.	8r	8r	8r	.
!	!	!	!	!	!	!	!	!	!	!	!	!	!	!	!	!	!LO:LB:g=original	!	!	!
=43	=43	=43	=43	=43	=43	=43	=43	=43	=43	=43	=43	=43	=43	=43	=43	=43	=43	=43	=43	=43
!	!	!	!	!	!	!	!	!	!	!	!	!	!	!	!LO:TX:a:t=3.	!	!LO:TX:a:t=3	!LO:TX:a:t=6.	!LO:TX:a:t=6	!
!	!	!	!	!	!	!	!	!	!	!	!	!	!	!	!LO:N:vis=0	!	!LO:N:vis=0	!LO:N:vis=00	!LO:N:vis=00	!
8.B-\L	.	.	8.d/L	.	(8.dd\L	.	.	.	.	.	.	.	.	.	2.r	.	2.r	1.r	1.r	.
16A-\K	x 5	.	16e-/K	.	16ee-\K	.	.	.	.	.	.	.	.	.	.	.	.	.	.	.
8B-\J	.	.	8d/J	.	8dd\J)	.	.	.	.	.	.	.	.	.	.	.	.	.	.	.
=44	=44	=44	=44	=44	=44	=44	=44	=44	=44	=44	=44	=44	=44	=44	=44	=44	=44	=44	=44	=44
4BB-/	.	.	8f/L	.	(8ff\L	.	4.r	.	4.r	.	4.r	.	4.r	.	.	.	.	.	.	.
.	.	.	16e-/L	.	16ee-\L	.	.	.	.	.	.	.	.	.	.	.	.	.	.	.
.	.	.	16d/	.	16dd\	.	.	.	.	.	.	.	.	.	.	.	.	.	.	.
8r	.	.	16c/	.	16cc\	.	.	.	.	.	.	.	.	.	.	.	.	.	.	.
.	.	.	16B-/JJ	.	16b-\JJ)	.	.	.	.	.	.	.	.	.	.	.	.	.	.	.
!	!	!	!	!	!	!	!LO:LB:g=original	!	!LO:PB:g=original	!	!	!	!	!	!	!	!	!	!	!
=45	=45	=45	=45	=45	=45	=45	=45	=45	=45	=45	=45	=45	=45	=45	=45	=45	=45	=45	=45	=45
8r	.	.	8An/L	.	8an\L	.	8r	.	8r	.	8r	.	8r	.	4.r	.	4.r	.	.	.
8r	.	.	8B-/	.	8b-\	.	8r	.	8r	.	8r	.	8r	.	.	.	.	.	.	.
!LO:TX:a:rj:t=Tutti	!	!	!	!	!	!	!	!	!	!	!	!	!	!	!	!	!	!	!	!
8F\	.	.	8c/J	.	8cc\J	.	8F\	a-	8c\	a-	8an\	a-	8ee-\	a-	.	.	.	.	.	.
=46	=46	=46	=46	=46	=46	=46	=46	=46	=46	=46	=46	=46	=46	=46	=46	=46	=46	=46	=46	=46
!	!	!	!	!	!	!	!	!	!	!	!	!	!	!	!LO:TX:a:t=1	!	!	!	!	!
!	!	!	!	!	!	!	!	!	!	!	!	!	!	!	!LO:TX:a:t=Solo.	!LO:DY:rj	!	!	!	!
8BB-/	.	.	8B-/L	.	(8b-\L	.	8B-\	-men	8F/	-men	8b-\	-men	8dd\	-men	4.B-/	p	4.b-/	.	.	.
8r	.	.	(8b-/	.	8bb-\	.	8r	.	8r	.	8r	.	8r	.	.	.	.	.	.	.
8r	.	.	8a-X/J)	.	8aa-X\J)	.	8r	.	8r	.	8r	.	8r	.	.	.	.	.	.	.
!	!	!	!	!	!	!	!	!	!	!	!LO:LB:g=original	!	!	!	!	!	!	!	!	!
=47	=47	=47	=47	=47	=47	=47	=47	=47	=47	=47	=47	=47	=47	=47	=47	=47	=47	=47	=47	=47
!	!	!	!	!	!	!	!	!	!	!	!	!	!LO:TX:b:t=2	!	!	!	!	!	!	!
!LO:TX:t=9.	!	!	!	!	!	!	!LO:TX:b:t=2	!	!LO:TX:a:t=2	!	!LO:TX:a:t=2.	!	!LO:TX:a:t=2	!	!LO:TX:a:t=2	!	!	!	!	!
!LO:N:vis=00	!	!	!	!	!	!	!LO:N:vis=0	!	!LO:N:vis=0	!	!LO:N:vis=0	!	!LO:N:vis=0	!	!	!	!	!LO:N:vis=0	!LO:N:vis=0	!
1.r	.	.	8g/L	.	(8gg\L	.	2.r	.	2.r	.	2.r	.	2.r	.	4.B-/	.	4.b-/	2.r	2.r	.
.	.	.	8f/	.	8ff\	.	.	.	.	.	.	.	.	.	.	.	.	.	.	.
.	.	.	8e-/J	.	8ee-\J)	.	.	.	.	.	.	.	.	.	.	.	.	.	.	.
=48	=48	=48	=48	=48	=48	=48	=48	=48	=48	=48	=48	=48	=48	=48	=48	=48	=48	=48	=48	=48
!	!	!	!LO:N:vis=16	!	!	!	!	!	!	!	!	!	!	!	!LO:TX:a:t=3	!	!	!	!	!
.	.	.	8d/L	.	8dd\L	.	.	.	.	.	.	.	.	.	4.B-/	.	4.b-/	.	.	.
.	.	.	(16c/L	.	(16cc\L	.	.	.	.	.	.	.	.	.	.	.	.	.	.	.
.	.	.	16B-/	.	16b-\	.	.	.	.	.	.	.	.	.	.	.	.	.	.	.
.	.	.	16c/	.	16cc\	.	.	.	.	.	.	.	.	.	.	.	.	.	.	.
.	.	.	16d/JJ)	.	16dd\JJ)	.	.	.	.	.	.	.	.	.	.	.	.	.	.	.
!	!	!	!	!	!LO:LB:g=original	!	!	!	!	!	!	!	!LO:LB:g=original	!	!	!	!	!	!	!
=49	=49	=49	=49	=49	=49	=49	=49	=49	=49	=49	=49	=49	=49	=49	=49	=49	=49	=49	=49	=49
*	*	*	*	*	*	*	*	*	*	*	*	*	*	*ij	*	*	*	*	*	*
!	!	!	!	!	!	!	!	!	!	!	!	!	!	!	!LO:TX:a:t=4	!	!	!	!	!
.	.	.	8e-/L	.	8ee-\L	.	4.B-\	a-	4.e-\	a-	4.g\	a-	4.ee-\	a-	4.B-/	.	4.b-/	4.ee-\	4.gg\	.
.	.	.	8f/	.	8ff\	.	.	.	.	.	.	.	.	.	.	.	.	.	.	.
.	.	.	8g/J	.	8gg\J	.	.	.	.	.	.	.	.	.	.	.	.	.	.	.
!	!	!	!LO:LB:g=original	!	!	!	!	!	!	!	!	!	!	!	!	!	!	!LO:LB:g=original	!	!
=50	=50	=50	=50	=50	=50	=50	=50	=50	=50	=50	=50	=50	=50	=50	=50	=50	=50	=50	=50	=50
!	!	!	!	!	!	!	!	!	!	!	!	!	!	!	!LO:TX:a:t=5	!	!	!	!LO:N:vis=4	!
.	.	.	8f/L	.	8ff\L	.	8B-\	-men	8f\	-men	8f\	-men	8dd\	-men	4.B-/	.	4.b-/	8dd\	8ff\	.
.	.	.	8b-/	.	8bb-\	.	8r	.	8r	.	8r	.	8r	.	.	.	.	8r	8r	.
.	.	.	8a-/J	.	8aa-X\J	.	8r	.	8r	.	8r	.	8r	.	.	.	.	8r	8r	.
=51	=51	=51	=51	=51	=51	=51	=51	=51	=51	=51	=51	=51	=51	=51	=51	=51	=51	=51	=51	=51
!	!	!	!	!	!	!	!LO:TX:b:t=2	!	!LO:TX:a:t=2	!	!LO:TX:a:t=2.	!	!	!	!LO:TX:a:t=6	!	!	!LO:TX:a:t=2.	!LO:TX:a:t=2.	!
!LO:N:vis=00	!	!	!	!	!	!	!LO:N:vis=0	!	!LO:N:vis=0	!	!LO:N:vis=0	!	!LO:N:vis=0	!	!	!	!	!LO:N:vis=0	!LO:N:vis=0	!
1.r	.	.	(8g/L	.	8gg\L	.	2.r	.	2.r	.	2.r	.	2.r	.	4.B-/	.	4.b-/	2.r	2.r	.
.	.	.	8f/	.	8ff\	.	.	.	.	.	.	.	.	.	.	.	.	.	.	.
.	.	.	8e-/J)	.	8ee-\J	.	.	.	.	.	.	.	.	.	.	.	.	.	.	.
=52	=52	=52	=52	=52	=52	=52	=52	=52	=52	=52	=52	=52	=52	=52	=52	=52	=52	=52	=52	=52
!	!	!	!	!	!	!	!	!	!	!	!	!	!	!	!LO:TX:a:t=7.	!	!	!	!	!
.	.	.	8d/L	.	8dd\L	.	.	.	.	.	.	.	.	.	4.B-/	.	4.b-/	.	.	.
.	.	.	(16c/L	.	(16cc\L	.	.	.	.	.	.	.	.	.	.	.	.	.	.	.
.	.	.	16B-/	.	16b-\	.	.	.	.	.	.	.	.	.	.	.	.	.	.	.
.	.	.	16c/	.	16cc\)	.	.	.	.	.	.	.	.	.	.	.	.	.	.	.
.	.	.	16d/JJ)	.	16dd\JJ	.	.	.	.	.	.	.	.	.	.	.	.	.	.	.
=53	=53	=53	=53	=53	=53	=53	=53	=53	=53	=53	=53	=53	=53	=53	=53	=53	=53	=53	=53	=53
*	*	*	*	*	*	*	*	*	*	*	*	*ij	*	*	*	*	*	*	*	*
!	!	!	!	!	!	!	!	!	!	!	!	!	!	!	!LO:TX:a:t=8	!	!	!	!	!
.	.	.	8e-/L	.	(8ee-\L	.	4.B-\	a-	4.e-\	a-	4.g\	a-	4.ee-\	a-	4.B-/	.	4.b-/	4.ee-\	4.gg\	.
.	.	.	8f/	.	8ff\	.	.	.	.	.	.	.	.	.	.	.	.	.	.	.
.	.	.	8g/J	.	8gg\J)	.	.	.	.	.	.	.	.	.	.	.	.	.	.	.
=54	=54	=54	=54	=54	=54	=54	=54	=54	=54	=54	=54	=54	=54	=54	=54	=54	=54	=54	=54	=54
!	!	!	!LO:SIC:v:s=4f/	!	!	!	!	!	!	!	!	!	!	!	!LO:TX:a:t=9	!	!	!	!	!
.	.	.	4e-/	.	4ff\	.	8B-\	-men	8f\	-men	8f\	-men	8dd\	-men	4.B-/	.	4.b-/	8dd\L	(8ff\L	.
*	*	*	*	*	*	*	*	*	*	*	*	*Xij	*	*Xij	*	*	*	*	*	*
.	.	.	.	.	.	.	8r	.	8r	.	8r	.	8r	.	.	.	.	8ff\	8aa-X\	.
.	.	.	8r	.	8r	.	8r	.	8r	.	8r	.	8r	.	.	.	.	8ee-\J	8gg\J)	.
=55	=55	=55	=55	=55	=55	=55	=55	=55	=55	=55	=55	=55	=55	=55	=55	=55	=55	=55	=55	=55
!	!	!	!LO:TX:a:t=2.	!	!LO:TX:a:t=P:problem:lekko wymazana pauza 0r	!	!LO:TX:b:t=2	!	!LO:TX:a:t=2	!	!LO:TX:a:t=2.	!	!LO:TX:a:t=2	!	!LO:TX:a:t=10	!	!	!	!	!
!	!	!	!LO:N:vis=0	!	!LO:N:vis=00	!	!LO:N:vis=0	!	!LO:N:vis=0	!	!LO:N:vis=0	!	!LO:N:vis=0	!	!	!	!	!	!	!
4.r	.	.	2.r	.	2.r	.	2.r	.	2.r	.	2.r	.	2.r	.	4.B-/	.	4.b-/	8dd\L	(8ff\L	.
.	.	.	.	.	.	.	.	.	.	.	.	.	.	.	.	.	.	8ff\	8aa-\	.
.	.	.	.	.	.	.	.	.	.	.	.	.	.	.	.	.	.	8ee-\J	8gg\J)	.
=56	=56	=56	=56	=56	=56	=56	=56	=56	=56	=56	=56	=56	=56	=56	=56	=56	=56	=56	=56	=56
!LO:TX:a:t=P:problem:brakujący 1 takt pauzy partii org	!	!	!	!	!	!	!	!	!	!	!	!	!	!	!LO:TX:a:t=11.	!	!	!	!	!
4.ryy	.	.	.	.	.	.	.	.	.	.	.	.	.	.	4.B-/	.	4.b-/	8dd\L	(8ff\L	.
.	.	.	.	.	.	.	.	.	.	.	.	.	.	.	.	.	.	8ff\	8aa-\	.
.	.	.	.	.	.	.	.	.	.	.	.	.	.	.	.	.	.	8ee-\J	8gg\J)	.
=57	=57	=57	=57	=57	=57	=57	=57	=57	=57	=57	=57	=57	=57	=57	=57	=57	=57	=57	=57	=57
!	!	!	!	!	!LO:TX:t=1.	!	!	!	!	!	!	!	!	!	!LO:N:vis=4	!	!	!	!	!
4.r;	.	.	4.r;	.	4.r;	.	4.r;	.	4.r;	.	4.r;	.	4.r;	.	4.B-;/	.	4.b-;/	4dd;\	4ff;\	.
.	.	.	.	.	.	.	.	.	.	.	.	.	.	.	.	.	.	8r	8r	.
!	!	!	!	!	!	!	!LO:LB:g=original	!	!	!	!	!	!	!	!	!	!	!	!	!
=58	=58	=58	=58	=58	=58	=58	=58	=58	=58	=58	=58	=58	=58	=58	=58	=58	=58	=58	=58	=58
!LO:TX:t=P:problem:mixed beam	!	!	!	!	!	!	!LO:TX:b:t=8	!	!LO:TX:a:t=8	!	!LO:TX:a:t=8.	!	!LO:TX:a:t=8	!	!LO:TX:a:t=8.	!	!LO:TX:a:t=8	!LO:TX:a:t=8.	!LO:TX:a:t=8.	!
!	!	!LO:DY:rj:t=p&colon;	!	!LO:DY:rj:t=p.	!	!	!LO:N:vis=00	!	!LO:N:vis=00	!	!LO:N:vis=00	!	!LO:N:vis=00	!	!LO:N:vis=00	!	!	!LO:N:vis=00	!LO:N:vis=00	!
8E-\L	.	p	16e-'/LL	p	16ee-'\LL	.	1.r	.	1.r	.	1.r	.	1.r	.	1.r	.	4.r	1.r	1.r	.
.	.	.	16g'/	.	16gg'\	.	.	.	.	.	.	.	.	.	.	.	.	.	.	.
8EE-/J	.	.	16b-'/	.	16bb-'\	.	.	.	.	.	.	.	.	.	.	.	.	.	.	.
.	.	.	16g'/	.	16gg'\	.	.	.	.	.	.	.	.	.	.	.	.	.	.	.
8r	.	.	16e-'/	.	16ee-'\	.	.	.	.	.	.	.	.	.	.	.	.	.	.	.
.	.	.	16g'/JJ	.	16gg'\JJ	.	.	.	.	.	.	.	.	.	.	.	.	.	.	.
!LO:LB:g=original	!	!	!	!	!	!	!	!	!	!	!	!	!	!	!	!	!	!	!	!
=59	=59	=59	=59	=59	=59	=59	=59	=59	=59	=59	=59	=59	=59	=59	=59	=59	=59	=59	=59	=59
8E-\L	.	.	(16f/LL	.	(16ff\LL	.	.	.	.	.	.	.	.	.	.	.	4.r	.	.	.
.	.	.	16e-/J)	.	16ee-\J)	.	.	.	.	.	.	.	.	.	.	.	.	.	.	.
8G\	x 6	.	8e-/J	.	8ee-|\J	.	.	.	.	.	.	.	.	.	.	.	.	.	.	.
8E-\J	.	.	8r	.	8r	.	.	.	.	.	.	.	.	.	.	.	.	.	.	.
!	!	!	!	!	!LO:LB:g=original	!	!	!	!	!	!	!	!	!	!	!	!	!	!	!
=60	=60	=60	=60	=60	=60	=60	=60	=60	=60	=60	=60	=60	=60	=60	=60	=60	=60	=60	=60	=60
!LO:TX:t=P:problem:mixed beam	!	!	!	!	!	!	!	!	!	!	!	!	!	!	!	!	!	!	!	!
8B-\L	.	.	16d/LL	.	16dd'\LL	.	.	.	.	.	.	.	.	.	.	.	4.r	.	.	.
.	.	.	16f/	.	16ff'\	.	.	.	.	.	.	.	.	.	.	.	.	.	.	.
8BB-/J	.	.	16a-/	.	16aa-'\	.	.	.	.	.	.	.	.	.	.	.	.	.	.	.
.	.	.	16f/	.	16ff'\	.	.	.	.	.	.	.	.	.	.	.	.	.	.	.
8r	.	.	16d/	.	16dd'\	.	.	.	.	.	.	.	.	.	.	.	.	.	.	.
.	.	.	16f/JJ	.	16ff'\JJ	.	.	.	.	.	.	.	.	.	.	.	.	.	.	.
=61	=61	=61	=61	=61	=61	=61	=61	=61	=61	=61	=61	=61	=61	=61	=61	=61	=61	=61	=61	=61
!LO:TX:t=P:problem:mixed beam	!	!	!	!	!	!	!	!	!	!	!	!	!	!	!	!	!	!	!	!
8BB-/L	.	.	16e-/LL	.	(16ee-\LL	.	.	.	.	.	.	.	.	.	.	.	4.r	.	.	.
.	.	.	16d/J	.	16dd\J)	.	.	.	.	.	.	.	.	.	.	.	.	.	.	.
8B-\	.	.	8d/J	.	8dd|\J	.	.	.	.	.	.	.	.	.	.	.	.	.	.	.
8BB-/J	.	.	8r	.	8r	.	.	.	.	.	.	.	.	.	.	.	.	.	.	.
!	!	!	!LO:LB:g=original	!	!	!	!	!	!	!	!	!	!	!	!	!	!	!	!	!
=62	=62	=62	=62	=62	=62	=62	=62	=62	=62	=62	=62	=62	=62	=62	=62	=62	=62	=62	=62	=62
!	!	!	!	!	!	!	!LO:N:vis=00	!	!LO:N:vis=00	!	!LO:N:vis=00	!	!LO:N:vis=00	!	!LO:N:vis=00	!	!	!LO:N:vis=00	!LO:N:vis=00	!
8E-\L	.	.	16e-/LL	.	16ee-|\LL	.	1.r	.	1.r	.	1.r	.	1.r	.	1.r	.	4.r	1.r	1.r	.
.	.	.	(16g/	.	(16gg\	.	.	.	.	.	.	.	.	.	.	.	.	.	.	.
8G\	x 6	.	16f/	.	16ff\	.	.	.	.	.	.	.	.	.	.	.	.	.	.	.
.	.	.	16e-/	.	16ee-\	.	.	.	.	.	.	.	.	.	.	.	.	.	.	.
8G\J	.	.	16d/	.	16dd\	.	.	.	.	.	.	.	.	.	.	.	.	.	.	.
.	.	.	16e-/JJ)	.	16ee-\JJ)	.	.	.	.	.	.	.	.	.	.	.	.	.	.	.
=63	=63	=63	=63	=63	=63	=63	=63	=63	=63	=63	=63	=63	=63	=63	=63	=63	=63	=63	=63	=63
*tremolo	*	*	*	*	*	*	*	*	*	*	*	*	*	*	*	*	*	*	*	*
8A-\L	.	.	16d/LL	.	(16dd\LL	.	.	.	.	.	.	.	.	.	.	.	4.r	.	.	.
.	.	.	(16c/	.	16cc\	.	.	.	.	.	.	.	.	.	.	.	.	.	.	.
8A-\	.	.	16f/	.	16ff\	.	.	.	.	.	.	.	.	.	.	.	.	.	.	.
.	.	.	16e-/	.	16ee-\	.	.	.	.	.	.	.	.	.	.	.	.	.	.	.
8A-\J	.	.	16d/	.	16dd\	.	.	.	.	.	.	.	.	.	.	.	.	.	.	.
.	.	.	16c/JJ)	.	16cc\JJ)	.	.	.	.	.	.	.	.	.	.	.	.	.	.	.
*Xtremolo	*	*	*	*	*	*	*	*	*	*	*	*	*	*	*	*	*	*	*	*
=64	=64	=64	=64	=64	=64	=64	=64	=64	=64	=64	=64	=64	=64	=64	=64	=64	=64	=64	=64	=64
8G\L	x 6	.	16c/LL	.	(16cc\LL	.	.	.	.	.	.	.	.	.	.	.	4.r	.	.	.
.	.	.	16B-/	.	16b-\	.	.	.	.	.	.	.	.	.	.	.	.	.	.	.
8A-\	x 6	.	(16a-/	.	16aa-\	.	.	.	.	.	.	.	.	.	.	.	.	.	.	.
.	.	.	16g/	.	16gg\	.	.	.	.	.	.	.	.	.	.	.	.	.	.	.
8An\J	x 5	.	16f/	.	16ff\	.	.	.	.	.	.	.	.	.	.	.	.	.	.	.
.	.	.	16e-/JJ)	.	16ee-\JJ)	.	.	.	.	.	.	.	.	.	.	.	.	.	.	.
=65	=65	=65	=65	=65	=65	=65	=65	=65	=65	=65	=65	=65	=65	=65	=65	=65	=65	=65	=65	=65
8B-\L	x 4	.	8e-/L	.	8ee-\L	.	.	.	.	.	.	.	.	.	.	.	4.r	.	.	.
16B-\L	x 3	.	8d/J	.	8dd\J	.	.	.	.	.	.	.	.	.	.	.	.	.	.	.
16A-X\	.	.	.	.	.	.	.	.	.	.	.	.	.	.	.	.	.	.	.	.
16G\	.	.	8r	.	8r	.	.	.	.	.	.	.	.	.	.	.	.	.	.	.
16F\JJ	.	.	.	.	.	.	.	.	.	.	.	.	.	.	.	.	.	.	.	.
=66	=66	=66	=66	=66	=66	=66	=66	=66	=66	=66	=66	=66	=66	=66	=66	=66	=66	=66	=66	=66
*tremolo	*	*	*	*	*	*	*	*	*	*	*	*	*	*	*	*	*	*	*	*
!LO:TX:a:t=Tutti	!	!	!	!LO:DY:t=for.	!	!	!	!	!	!	!	!	!	!	!	!	!	!	!	!
8E-\L	.	.	16e-'/LL	f	16ee-'\LL	.	4E-\	et	4B-\	et	4g\	et	4ee-\	et	4.ee-\	.	4.gg\	4.ee-\	4.gg\	f
.	.	.	16g'/	.	16gg'\	.	.	.	.	.	.	.	.	.	.	.	.	.	.	.
8E-\	.	.	16b-'/	.	16bb-'\	.	.	.	.	.	.	.	.	.	.	.	.	.	.	.
.	.	.	16g'/	.	16gg'\	.	.	.	.	.	.	.	.	.	.	.	.	.	.	.
8E-\J	.	.	16e-'/	.	16ee-'\	.	8E-\	in	8B-\	in	8g\	in	8ee-\	in	.	.	.	.	.	.
.	.	.	16g'/JJ	.	16gg'\JJ	.	.	.	.	.	.	.	.	.	.	.	.	.	.	.
!	!	!	!	!	!LO:LB:g=original	!	!	!	!	!	!LO:LB:g=original	!	!	!	!	!	!	!	!	!
=67	=67	=67	=67	=67	=67	=67	=67	=67	=67	=67	=67	=67	=67	=67	=67	=67	=67	=67	=67	=67
!	!	!	!	!	!	!	!	!	!	!	!	!	!	!LO:MO:mod=Sae-	!	!	!	!	!	!
8E-\L	.	.	(16f/LL	.	(16ff\LL	.	8E-\	Sae-	8.B-\	Sae-	8g\	Sae-	8ee-\	Se-	4ee-\	.	4gg\	4ee-\	4gg\	.
.	.	.	16e-/J)	.	16ee-\J)	.	.	.	.	.	.	.	.	.	.	.	.	.	.	.
8E-\	.	.	8e-/J	.	8ee-|\J	.	8E-\	-cu-	.	.	8g\	-cu-	8ee-\	-cu-	.	.	.	.	.	.
.	.	.	.	.	.	.	.	.	16B-\	-cu-	.	.	.	.	.	.	.	.	.	.
8E-\J	.	.	8r	.	8r	.	8E-\	-la	8B-\	-la	8g\	-la	8ee-\	-la	16gg\LL	.	16bb-\LL	16gg\LL	16bb-\LL	.
.	.	.	.	.	.	.	.	.	.	.	.	.	.	.	16ee-\JJ	.	16gg\JJ	16ee-\JJ	16gg\JJ	.
!	!	!	!	!	!	!	!	!	!LO:LB:g=original	!	!	!	!	!	!LO:LB:g=original	!	!	!	!	!
=68	=68	=68	=68	=68	=68	=68	=68	=68	=68	=68	=68	=68	=68	=68	=68	=68	=68	=68	=68	=68
*	*	*	*	*	*	*	*	*	*	*	*	*ij	*	*ij	*	*	*	*	*	*
8BB-/L	x 7	.	16d'/LL	.	16dd'\LL	.	4B-\	et	4B-\	et	4f\	et	4dd\	et	4.b-/	.	4.ff\	4.dd\	4.ff\	.
.	.	.	16f'/	.	16ff'\	.	.	.	.	.	.	.	.	.	.	.	.	.	.	.
8BB-/	.	.	16a-/	.	16aa-'\	.	.	.	.	.	.	.	.	.	.	.	.	.	.	.
.	.	.	16f/	.	16ff'\	.	.	.	.	.	.	.	.	.	.	.	.	.	.	.
8BB-/J	.	.	16d/	.	16dd'\	.	8B-\	in	8B-\	in	8f\	in	8dd\	in	.	.	.	.	.	.
.	.	.	16f/JJ	.	16ff'\JJ	.	.	.	.	.	.	.	.	.	.	.	.	.	.	.
!	!	!	!	!	!	!	!	!	!	!	!	!	!LO:LB:g=original	!	!	!	!LO:LB:g=original	!	!	!
=69	=69	=69	=69	=69	=69	=69	=69	=69	=69	=69	=69	=69	=69	=69	=69	=69	=69	=69	=69	=69
!	!	!	!	!	!	!	!	!	!	!	!	!	!	!LO:MO:mod=sae-	!	!	!	!	!	!
8BB-/L	.	.	(16e-/LL	.	(16ee-\LL	.	8B-\	sae-	8.B-\	Sae-	8f\	Sae-	8dd\	Se-	4b-/	.	4ff\	4dd\	4ff\	.
.	.	.	16d/J)	.	16dd\J)	.	.	.	.	.	.	.	.	.	.	.	.	.	.	.
8BB-/	.	.	8d/J	.	8dd|\J	.	8B-\	-cu-	.	.	8f\	-cu-	8dd\	-cu-	.	.	.	.	.	.
.	.	.	.	.	.	.	.	.	16B-\	-cu-	.	.	.	.	.	.	.	.	.	.
8BB-/J	.	.	8r	.	8r	.	8B-\	-la	8B-\	-la	8f\	-la	8dd\	-la	16ff\LL	.	16aa-\LL	16ff\LL	(16aa-\LL	.
*Xtremolo	*	*	*	*	*	*	*	*	*	*	*	*Xij	*	*	*	*	*	*	*	*
.	.	.	.	.	.	.	.	.	.	.	.	.	.	.	16b-\JJ	.	16ff\JJ	16dd\JJ	16ff\JJ)	.
!LO:LB:g=original	!	!	!LO:LB:g=original	!	!	!	!	!	!	!	!	!	!	!	!	!	!	!	!	!
=70	=70	=70	=70	=70	=70	=70	=70	=70	=70	=70	=70	=70	=70	=70	=70	=70	=70	=70	=70	=70
!	!	!	!	!	!	!	!	!	!	!	!	!	!	!LO:MO:mod=sae-	!	!	!	!	!	!
8E-\L	.	.	16e-/LL	.	16ee-\LL	.	(8E-\L	sae-	4B-\	sae-	4g\	Sae-	4ee-\	et	4.e-/	.	4.ee-\	4.b-\	4.ee-\	.
.	.	.	(16g/	.	(16gg\	.	.	.	.	.	.	.	.	.	.	.	.	.	.	.
8G\	x 6	.	16f/	.	16ff\	.	8G\J)	.	.	.	.	.	.	.	.	.	.	.	.	.
.	.	.	16e-/	.	16ee-\	.	.	.	.	.	.	.	.	.	.	.	.	.	.	.
!	!	!	!	!	!	!	!	!	!	!	!	!	!	!LO:MO:mod=-cu-	!	!	!	!	!	!
8G\J	.	.	16d/	.	16dd\)	.	8G\	-cu-	8B-\	-cu-	8g\	-cu-	8ee-\	in	.	.	.	.	.	.
.	.	.	16e-/JJ)	.	16ee-\JJ	.	.	.	.	.	.	.	.	.	.	.	.	.	.	.
!	!	!	!	!	!	!	!LO:LB:g=original	!	!	!	!	!	!	!	!	!	!	!	!	!
=71	=71	=71	=71	=71	=71	=71	=71	=71	=71	=71	=71	=71	=71	=71	=71	=71	=71	=71	=71	=71
*tremolo	*	*	*	*	*	*	*	*	*	*	*	*	*	*	*	*	*	*	*	*
!	!	!	!	!	!	!	!	!	!	!	!	!	!	!LO:MO:mod=-lo-	!	!	!	!	!	!
8A-\L	.	.	16d/LL	.	(16dd\LL	.	4A-\	-lo-	4c\	-lo-	4a-\	-lo-	4ee-\	Se-	4.e-/	.	4.ee-\	4.cc\	4.ee-\	.
.	.	.	16c/	.	16cc\	.	.	.	.	.	.	.	.	.	.	.	.	.	.	.
8A-\	.	.	(16f/	.	16ff\	.	.	.	.	.	.	.	.	.	.	.	.	.	.	.
.	.	.	16e-/	.	16ee-\	.	.	.	.	.	.	.	.	.	.	.	.	.	.	.
!	!	!	!	!	!	!	!	!	!	!	!	!	!	!LO:MO:mod=-rum	!	!	!	!	!	!
8A-\J	.	.	16d/	.	16dd\	.	8A-\	-rum	8c\	-rum	8a-\	-rum	8ee-\	-cu-	.	.	.	.	.	.
.	.	.	16e-/JJ)	.	16ee-\JJ)	.	.	.	.	.	.	.	.	.	.	.	.	.	.	.
=72	=72	=72	=72	=72	=72	=72	=72	=72	=72	=72	=72	=72	=72	=72	=72	=72	=72	=72	=72	=72
!	!	!	!	!	!	!	!	!	!	!	!	!	!LO:TX:a:t=P:problem:brakujący takt partii Soprano	!	!	!	!	!	!	!
8G\L	.	.	16c/LL	.	(16cc\LL	.	4G\	a-	4e-\	a-	4.b-\	a-	4.ryy	.	4.e-/	.	4.ee-\	4.b-\	4.ee-\	.
.	.	.	16B-/	.	16b-\	.	.	.	.	.	.	.	.	.	.	.	.	.	.	.
8G\	.	.	(16e-/	.	16ee-\	.	.	.	.	.	.	.	.	.	.	.	.	.	.	.
.	.	.	16d/	.	16dd\	.	.	.	.	.	.	.	.	.	.	.	.	.	.	.
8G\J	.	.	16c/	.	16cc\	.	8G\	-men	8e-\	-men	.	.	.	.	.	.	.	.	.	.
.	.	.	16B-/JJ)	.	16b-\JJ)	.	.	.	.	.	.	.	.	.	.	.	.	.	.	.
*Xtremolo	*	*	*	*	*custos:cc	*	*	*	*	*	*	*	*	*	*	*	*	*	*	*
!	!	!	!	!	!LO:LB:g=original	!	!	!	!	!	!	!	!	!	!	!	!	!LO:LB:g=original	!LO:LB:g=original	!
=73	=73	=73	=73	=73	=73	=73	=73	=73	=73	=73	=73	=73	=73	=73	=73	=73	=73	=73	=73	=73
!LO:TX:t=P:problem:mixed beam	!	!	!	!	!	!	!	!	!	!	!	!	!	!	!	!	!	!	!	!
8A-\L	x 6	.	8c/L	.	16cc\LL	.	8A-\L	a-	8c\	a-	8a-\L	.	8ff\L	-la	8ff\L	.	8aa-\L	8a-X/L	8ff\L	.
*	*	*	*	*	*	*	*	*	*	*	*	*	*	*Xij	*	*	*	*	*	*
.	.	.	.	.	16aa-\	.	.	.	.	.	.	.	.	.	.	.	.	.	.	.
!	!	!	!	!	!	!	!LO:TX:t=P:problem:mixed beam	!	!	!	!	!	!	!	!	!	!	!	!	!
8B-\	x 4	.	8g/	.	16gg\	.	8B-\	.	4B-\	.	8g\	.	8ee-\	a-	8ee-\	.	8gg\	8g/	8ee-\	.
.	.	.	.	.	16ee-\	.	.	.	.	.	.	.	.	.	.	.	.	.	.	.
8BB-/J	x 3	.	8f/J	.	16ff\	.	8BB-/J	.	.	.	8f\J	.	8dd\J	.	8b-\J	.	8ff\J	8f/J	8dd\J	.
.	.	.	.	.	16dd\JJ	.	.	.	.	.	.	.	.	.	.	.	.	.	.	.
!	!	!	!	!	!	!	!	!	!	!	!LO:LB:g=original	!	!	!	!	!	!	!LO:LB:g=original	!	!
=74	=74	=74	=74	=74	=74	=74	=74	=74	=74	=74	=74	=74	=74	=74	=74	=74	=74	=74	=74	=74
!	!	!	!	!	!	!	!	!	!	!	!	!	!	!	!	!	!	!LO:TX:t=P:problem:mixed beam	!	!
!	!	!	!	!	!	!	!	!	!	!	!	!	!	!	!	!	!	!LO:TX:a:t=Solo	!LO:TX:b:t=Solo.	!
8E-\	.	.	4g/	.	8ee-\	.	8E-\	-men	8B-\	-men	8g\	-men	4ee-\	-men	4.e-/	.	4.ee-\	8g\L	8ee-\L	.
8r	.	.	.	.	8r	.	8r	.	8r	.	8r	.	.	.	.	.	.	(16gg\L	(16bb-\L	.
.	.	.	.	.	.	.	.	.	.	.	.	.	.	.	.	.	.	16ee-\)	16gg\	.
8r	.	.	8r	.	8r	.	8r	.	8r	.	8r	.	8r	.	.	.	.	(16gg\	16bb-\	.
.	.	.	.	.	.	.	.	.	.	.	.	.	.	.	.	.	.	16ee-\JJ)	16gg\JJ)	.
=75	=75	=75	=75	=75	=75	=75	=75	=75	=75	=75	=75	=75	=75	=75	=75	=75	=75	=75	=75	=75
8r	.	.	8r	.	8r	.	8r	.	8r	.	8r	.	8r	.	4.B-/	.	4.b-/	8ff\L	8aa-\L	.
8r	.	.	8r	.	8r	.	8r	.	8r	.	8r	.	8r	.	.	.	.	8dd\	8ff\	.
*	*	*	*	*	*	*	*	*	*	*	*	*	*	*ij	*	*	*	*	*	*
8BB-/	x 7	.	8dd 8f/	.	8ff 8b- 8d/	.	8BB-/	a-	8B-\	a-	8f\	a-	8dd\	a-	.	.	.	8a-\J	8dd\J	.
=76	=76	=76	=76	=76	=76	=76	=76	=76	=76	=76	=76	=76	=76	=76	=76	=76	=76	=76	=76	=76
!	!	!	!	!	!	!	!	!	!	!	!	!	!	!	!	!	!	!LO:TX:t=P:problem:mixed beam	!	!
8E-\	.	.	8ee- 8g/	.	8gg 8b- 8e-/	.	8E-\	-men	8B-\	-men	8g\	-men.	8ee-\	-men	4.e-/	.	4.ee-\	8g/L	8ee-\L	.
8r	.	.	8r	.	8r	.	8r	.	8r	.	8r	.	8r	.	.	.	.	16gg\L	(16bb-\L	.
.	.	.	.	.	.	.	.	.	.	.	.	.	.	.	.	.	.	16ee-\	16gg\	.
8r	.	.	8r	.	8r	.	8r	.	8r	.	8r	.	8r	.	.	.	.	16gg\	16bb-\	.
.	.	.	.	.	.	.	.	.	.	.	.	.	.	.	.	.	.	16ee-\JJ	16gg\JJ)	.
=77	=77	=77	=77	=77	=77	=77	=77	=77	=77	=77	=77	=77	=77	=77	=77	=77	=77	=77	=77	=77
8r	.	.	8r	.	8r	.	8r	.	8r	.	8r	.	8r	.	4.B-/	.	4.b-/	8ff\L	8aa-\L	.
8r	.	.	8r	.	8r	.	8r	.	8r	.	8r	.	8r	.	.	.	.	8dd\	8ff\	.
*	*	*	*	*	*	*	*	*	*	*	*	*ij	*	*	*	*	*	*	*	*
8BB-/	x 7	.	8dd 8f/	.	8ff 8b- 8d/	.	8BB-/	a-	8B-\	a-	8f\	a-	8dd\	a-	.	.	.	8a-\J	8dd\J	.
!	!	!	!	!	!	!	!LO:LB:g=original	!	!	!	!	!	!LO:LB:g=original	!	!	!	!	!	!	!
=78	=78	=78	=78	=78	=78	=78	=78	=78	=78	=78	=78	=78	=78	=78	=78	=78	=78	=78	=78	=78
!	!	!	!	!	!	!	!	!	!	!	!	!	!	!	!	!	!	!LO:TX:t=P:problem:mixed beam	!	!
8E-\	.	.	8ee- 8g/	.	8gg 8b- 8e-/	.	8E-\	-men	8B-\	-men	8g\	-men.	8ee-\	-men	8e-/	.	8ee-\	8b-/L	8ee-\L	.
8r	.	.	8r	.	8r	.	8r	.	8r	.	8r	.	8r	.	8r	.	8r	(16gg\L	16bb-\L	.
.	.	.	.	.	.	.	.	.	.	.	.	.	.	.	.	.	.	16aa-X\	16ccc\	.
8BB-/	.	.	8dd 8f/	.	8ff 8b- 8d/	.	8B-\	a-	8B-\	a-	8f\	a-	8dd\	a-	8b-/	.	8ff\	16gg\)	16bb-\	.
.	.	.	.	.	.	.	.	.	.	.	.	.	.	.	.	.	.	16ff\JJ	16aa-\JJ	.
!	!	!	!LO:LB:g=original	!	!	!	!	!	!LO:LB:g=original	!	!	!	!	!	!	!	!	!	!	!
=79	=79	=79	=79	=79	=79	=79	=79	=79	=79	=79	=79	=79	=79	=79	=79	=79	=79	=79	=79	=79
8E-\	.	.	8ee- 8g/	.	8gg 8b- 8e-/	.	8E-\	-men	8B-\	-men	8g\	-men.	8ee-\	-men	8g/	.	8ee-\	8ee-\L	8gg\L	.
*	*	*	*	*	*	*	*	*	*	*	*	*	*	*Xij	*	*	*	*	*	*
8r	.	.	8r	.	8r	.	8r	.	8r	.	8r	.	8r	.	8r	.	8r	(16b-\L	16gg\L	.
.	.	.	.	.	.	.	.	.	.	.	.	.	.	.	.	.	.	16cc\	16aa-\	.
8BB-/	.	.	8dd 8f/	.	8ff 8b- 8d/	.	8B-\	a-	8B-\	a-	8f\	a-	8dd\	a-	8b-/	.	8ff\	16b-\	16gg\	.
.	.	.	.	.	.	.	.	.	.	.	.	.	.	.	.	.	.	16a-X\JJ)	16ff\JJ	.
!LO:LB:g=original	!	!	!	!	!	!	!	!	!	!	!	!	!	!	!	!	!	!	!	!
=80	=80	=80	=80	=80	=80	=80	=80	=80	=80	=80	=80	=80	=80	=80	=80	=80	=80	=80	=80	=80
8E-\L	.	.	8ee-L 8g/	.	8ggL 8b- 8e-/	.	8E-\	-men	8B-\	-men	8g\	-men.	4ee-\	-men	8g/L	.	8ee-\L	8g/L	8ee-\L	.
8E-\	.	.	8ee- 8g/	.	8gg 8b- 8e-/	.	8r	.	8r	.	8r	.	.	.	8g/	.	8ee-\	8g/	8ee-\	.
8E-\J	.	.	8ee-J 8g/	.	8ggJ 8b- 8e-/	.	8r	.	8r	.	8r	.	8r	.	8g/J	.	8ee-\J	8g/J	8ee-\J	.
!	!	!	!	!	!	!	!	!	!	!	!LO:LB:g=original	!	!	!	!	!	!	!	!	!
=81	=81	=81	=81	=81	=81	=81	=81	=81	=81	=81	=81	=81	=81	=81	=81	=81	=81	=81	=81	=81
!	!	!	!	!	!	!	!LO:TX:a:t=1	!	!LO:TX:a:t=1	!	!LO:TX:a:t=1.	!	!LO:TX:a:t=1.	!	!	!	!	!	!	!
4E-\	.	.	4ee- 4g/	.	4gg 4b- 4e-/	.	4.r	.	4.r	.	4.r	.	4.r	.	4g/	.	4ee-\	4g/	4ee-\	.
8r	.	.	8r	.	8r	.	.	.	.	.	.	.	.	.	8r	.	8r	8r	8r	.
!LO:TX:b:t=Finis 1825 Scrip(sit) Meźnicki	!	!	!LO:TX:b:t=Finis\n𝄞 u&colon;\nDnia. 6. Maj r&colon; 1825	!	!LO:TX:b:t=Finiſ\nScripsit Dnia 6 Maia. r 1825\nJozef Kuligowſkij	!	!LO:TX:b:t=Finiſ	!	!LO:TX:b:t=Tinis	!	!LO:TX:b:t=Finis\nT&colon; N&colon;	!	!LO:TX:b:t=Finis.\nJo&colon; Murawski\nd&colon; 6 Maj. r. 1825	!	!LO:TX:b:t=Fine J&colon; F&colon;	!	!	!LO:TX:b:t=Finiſ\nScripsit Dnia 6 Maja 1825\nFiniſ\nFranciszek Szumańſki	!LO:TX:b:t=Merz Joseph\n1825.	!
==	==	==	==	==	==	==	==	==	==	==	==	==	==	==	==	==	==	==	==	==
*-	*-	*-	*-	*-	*-	*-	*-	*-	*-	*-	*-	*-	*-	*-	*-	*-	*-	*-	*-	*-
!!!system-decoration: [(g1)][(g2)][(g3)][(g4)]g5
!!!RDF**kern: | = vertical stroke
!!!ENC: Katarzyna Serwa
!!!END: 2021-11-23
!!!ENC: Marta Chmielewska
!!!END: 2020-07-10
!!!YEC: Copyright 2022 Narodowy Instytut Fryderyka Chopina (https://polishscores.org)
!!!YEM: License CC-BY-4.0 (https://creativecommons.org/licenses/by/4.0)
